X: 1
T:Polska fr Sk\aa{}ne
R:Polska
O:Sweden
M:3/4
A:Sk\aa{}ne
K:Em
B2|\
BB/^A/ B2^d2|ee/^d/ e2f2|gf/g/ ag fe|e^d/e/ f2::
g2|\
ge d2 Bd|cc/A/ B2G2|A>A BB A(3G/A/G/|FG E2:|
